icons/lines/activity.svg

<svg xmlns="http://www.w3.org/2000/svg" width="24" height="24" viewBox="0 0 24 24" fill="none" stroke="currentColor" stroke-width="2" stroke-linecap="round" stroke-linejoin="round" >
  <path d="M9 22H15C20 22 22 20 22 15V9C22 4 20 2 15 2H9C4 2 2 4 2 9V15C2 20 4 22 9 22Z"/>
  <path d="M7.33008 14.49L9.71008 11.4C10.0501 10.96 10.6801 10.88 11.1201 11.22L12.9501 12.66C13.3901 13 14.0201 12.92 14.3601 12.49L16.6701 9.50999"/>
  </svg>

<svg xmlns="http://www.w3.org/2000/svg" width="24" height="24" viewBox="0 0 24 24" fill="none" stroke="currentColor" stroke-width="2" stroke-linecap="round" stroke-linejoin="round">
  <path d="M15 22c5 0 7-2 7-7V9c0-5-2-7-7-7H9C4 2 2 4 2 9v6c0 5 2 7 7 7z" />
  <path d="m7.33 14.49 2.38-3.09a1 1 0 0 1 1.41-.18l1.83 1.44a1 1 0 0 0 1.41-.17l2.31-2.98" />
</svg>
